src/images/icons/reviews-dropd.svg

<svg width="24" height="24" fill="none" xmlns="http://www.w3.org/2000/svg"><path d="M19.82 9.18h-3.95c-.62 0-1.16-.4-1.34-.99l-1.2-3.87c-.4-1.31-2.27-1.31-2.67 0l-1.2 3.87c-.18.59-.72.99-1.34.99h-4c-1.33 0-1.91 1.7-.85 2.51l3.35 2.57c.47.35.66.96.49 1.52l-1.24 4.04c-.39 1.3 1.11 2.35 2.19 1.52l3.08-2.36c.51-.39 1.2-.39 1.71 0l3.06 2.34c1.08.83 2.59-.22 2.19-1.52l-1.25-4.05c-.18-.57.02-1.18.49-1.53l3.33-2.52c1.07-.81.5-2.52-.85-2.52Zm-5.71.99c.46.34 1.04.51 1.76.51h3.66l-3.1 2.34c-.54.41-.89.88-1.06 1.41-.17.52-.16 1.11.04 1.76l1.16 3.75-2.81-2.15c-.59-.45-1.18-.68-1.76-.68-.59 0-1.18.23-1.77.68L7.4 19.96l1.14-3.74c.2-.64.22-1.23.05-1.75-.17-.53-.52-.99-1.05-1.4l-3.12-2.39h3.7c.72 0 1.3-.17 1.76-.51.47-.34.8-.85 1.01-1.53L12 5.07l1.1 3.57c.21.68.54 1.19 1.01 1.53Z" fill="#FAFAFA" fill-rule="evenodd"/></svg>

<svg width="24.000000" height="24.000000" viewBox="0 0 24 24" fill="none" xmlns="http://www.w3.org/2000/svg" xmlns:xlink="http://www.w3.org/1999/xlink">
	<desc>
			Created with Pixso.
	</desc>
	<defs/>
	<path id="Vector" d="M19.82 9.18L15.87 9.18C15.25 9.18 14.71 8.78 14.53 8.19L13.33 4.32C12.93 3.01 11.06 3.01 10.66 4.32L9.46 8.19C9.28 8.78 8.74 9.18 8.12 9.18L4.12 9.18C2.79 9.18 2.21 10.88 3.27 11.69L6.62 14.26C7.09 14.61 7.28 15.22 7.11 15.78L5.87 19.82C5.48 21.12 6.98 22.17 8.06 21.34L11.14 18.98C11.65 18.59 12.34 18.59 12.85 18.98L15.91 21.32C16.99 22.15 18.5 21.1 18.1 19.8L16.85 15.75C16.67 15.18 16.87 14.57 17.34 14.22L20.67 11.7C21.74 10.89 21.17 9.18 19.82 9.18ZM14.11 10.17C14.57 10.51 15.15 10.68 15.87 10.68L19.53 10.68L16.43 13.02C15.89 13.43 15.54 13.9 15.37 14.43C15.2 14.95 15.21 15.54 15.41 16.19L16.57 19.94L13.76 17.79C13.17 17.34 12.58 17.11 12 17.11C11.41 17.11 10.82 17.34 10.23 17.79L7.4 19.96L8.54 16.22C8.74 15.58 8.76 14.99 8.59 14.47C8.42 13.94 8.07 13.48 7.54 13.07L4.42 10.68L8.12 10.68C8.84 10.68 9.42 10.51 9.88 10.17C10.35 9.83 10.68 9.32 10.89 8.64L12 5.07L13.1 8.64C13.31 9.32 13.64 9.83 14.11 10.17Z" fill="#FAFAFA" fill-opacity="1.000000" fill-rule="evenodd"/>
</svg>
